assets/icons/action/new_custom71.svg

<?xml version="1.0"?><svg xmlns="http://www.w3.org/2000/svg" width="52" height="52" viewBox="0 0 52 52"><path fill="#fff" d="m43 10.9c-4.7-4.6-11-7.1-17.7-6.9-12.8 0.4-23.3 11.2-23.3 24v7.4c0 2.6 2.2 4.7 4.8 4.7h3.2v3.8c0 2 1.5 3.8 3.6 4.1 2.4 0.2 4.4-1.6 4.4-3.9v-14c0-2-1.5-3.8-3.6-4.1-2.4-0.2-4.4 1.6-4.4 3.9v5.5h-1.6c-0.9 0-1.6-0.7-1.6-1.6v-5.8c0-10.4 8.4-19 18.6-19.3 5.3-0.2 10.2 1.7 13.9 5.3 3.8 3.6 5.8 8.4 5.8 13.5v6.3c0 0.9-0.7 1.6-1.6 1.6h-1.5v-5.3c0-2-1.5-3.8-3.6-4.1-2.4-0.2-4.4 1.6-4.4 3.9v14c0 2 1.5 3.8 3.6 4.1 2.4 0.2 4.4-1.6 4.4-3.9v-3.9h3.2c2.6 0 4.8-2.1 4.8-4.7v-7.5c0-6.3-2.4-12.5-7-17.1z"></path></svg>

<svg xmlns="http://www.w3.org/2000/svg" x="0px" y="0px"
	 width="52px" height="52px" viewBox="0 0 52 52" enable-background="new 0 0 52 52" xml:space="preserve">
<path fill="#FFFFFF" d="M43,10.9c-4.7-4.6-11-7.1-17.7-6.9C12.5,4.4,2,15.2,2,28v7.4c0,2.6,2.2,4.7,4.8,4.7H10v3.8
	c0,2,1.5,3.8,3.6,4.1c2.4,0.2,4.4-1.6,4.4-3.9v-14c0-2-1.5-3.8-3.6-4.1C12,25.8,10,27.6,10,29.9v5.5H8.4c-0.9,0-1.6-0.7-1.6-1.6V28
	c0-10.4,8.4-19,18.6-19.3c5.3-0.2,10.2,1.7,13.9,5.3c3.8,3.6,5.8,8.4,5.8,13.5v6.3c0,0.9-0.7,1.6-1.6,1.6H42v-5.3
	c0-2-1.5-3.8-3.6-4.1C36,25.8,34,27.6,34,29.9v14c0,2,1.5,3.8,3.6,4.1c2.4,0.2,4.4-1.6,4.4-3.9v-3.9h3.2c2.6,0,4.8-2.1,4.8-4.7V28
	C50,21.7,47.6,15.5,43,10.9z"/>
</svg>
